svg/girl_0105y_outline.svg

<?xml version="1.0" encoding="UTF-8" standalone="no"?>
<!-- Created with Inkscape (http://www.inkscape.org/) -->
<svg id="svg8" xmlns:rdf="http://www.w3.org/1999/02/22-rdf-syntax-ns#" xmlns="http://www.w3.org/2000/svg" xmlns:osb="http://www.openswatchbook.org/uri/2009/osb" height="48" width="48" version="1.1" xmlns:cc="http://creativecommons.org/ns#" viewBox="0 0 12.7 12.7" xmlns:dc="http://purl.org/dc/elements/1.1/">
 <title id="title4753">UIO-icon</title>
 <metadata id="metadata5">
  <rdf:RDF>
   <cc:Work rdf:about="">
    <dc:format>image/svg+xml</dc:format>
    <dc:type rdf:resource="http://purl.org/dc/dcmitype/StillImage"/>
    <dc:title>UIO-icon</dc:title>
    <dc:creator>
     <cc:Agent>
      <dc:title>Joaquín Urbano</dc:title>
     </cc:Agent>
    </dc:creator>
    <dc:rights>
     <cc:Agent>
      <dc:title>GPL</dc:title>
     </cc:Agent>
    </dc:rights>
   </cc:Work>
  </rdf:RDF>
 </metadata>
 <g id="layer1" transform="translate(0,-284.3)">
  <path id="text4858" d="m12.637 4.002c-4.23-0.0877-5.7493 3.8207-4.0843 14.668 0.97681 7.2728-5.7705 1.7016-3.7832-1.5215-1.7922 2.5469-0.40137 6.4493 3.1543 6.4531 3.9082 0.27239 1.2855-11.431 3.9434-15.287 2.018-3.773 6.1712 0.42722 7.0918 3.2715-3.0399 2.087-4.8566 5.5355-4.8574 9.2207-0.00026353 6.181 5.0148 11.192 11.201 11.191 6.1863 0.00026272 11.201-5.0105 11.201-11.191 0-6.181-5.015-11.192-11.201-11.192-1.916 0.0021-3.8 0.495-5.471 1.432-1.106-3.0452-2.666-6.1064-5.217-6.7716-0.71351-0.16703-1.3743-0.26092-1.9785-0.27344zm12.666 6.1289c4.8896 0.003249 9.153 3.3223 10.352 8.0586-2.9881 0.17996-4.827 0.20049-7.0137-1.1426-0.91352-3.0075-2.7867-4.1379-3.6895-0.19336-4.5925 0.90922-4.8126 1.5053-9.2734-0.51367-0.008893-0.004025-0.014511-0.007673-0.023438-0.011719-0.010765-0.004878-0.020031-0.008021-0.029297-0.011719 1.7476-3.7667 5.5224-6.1793 9.6777-6.1855zm1.2676 4.7539c0.5475-0.036099 1.1218 1.0192 1.6191 2.418 2.0803 1.8605 5.3462 1.5191 7.5801 1.4062 0.14204 0.69029 0.21531 1.3929 0.21875 2.0977 0.00026345 5.8964-4.784 10.676-10.686 10.676-5.9007-0.00056648-10.684-4.7802-10.684-10.676 0.002225-1.3799 0.27218-2.7462 0.79492-4.0234l0.050781 0.023438c4.7631 2.4421 6.7451 0.8965 9.9258 0.49609 0.34421-1.7018 0.75386-2.3899 1.1797-2.418zm-5.0293 4.6504c-0.57904 0.000505-1.0483 0.46979-1.0488 1.0488-0.000573 0.5798 0.46902 1.0503 1.0488 1.0508 0.58057 0.000574 1.0514-0.47021 1.0508-1.0508-0.000506-0.5798-0.47098-1.0494-1.0508-1.0488zm7.6543 0c-0.57904 0.000505-1.0483 0.46979-1.0488 1.0488-0.000573 0.5798 0.46903 1.0503 1.0488 1.0508 0.58057 0.000574 1.0514-0.47021 1.0508-1.0508-0.000506-0.5798-0.47098-1.0494-1.0508-1.0488zm-7.227 5.647c-0.17309 0.01512-0.32931 0.18552-0.30664 0.46094 0.14209 1.3843 1.756 2.4556 3.6992 2.457 1.9445-0.000189 3.559-1.0718 3.7012-2.457-0.81914 1.157-2.1004 1.9142-3.7012 1.9473-1.549-0.000794-2.8425-0.84538-2.9824-1.9473-0.04663-0.33865-0.23707-0.47666-0.41016-0.46094zm-14.266 10.164c-0.7751 0-1.3696 0.25692-1.7832 0.77148-0.4103 0.515-0.6152 1.269-0.6152 2.262v1.3105c0.0097702 0.95422 0.21856 1.686 0.62891 2.1973s1.0042 0.76758 1.7793 0.76758c0.78487 0 1.38-0.26018 1.7871-0.78125 0.40709-0.52108 0.61133-1.2743 0.61133-2.2578v-1.309c-0.009-0.955-0.2202-1.686-0.6305-2.194-0.4104-0.511-1.0023-0.767-1.7774-0.767zm15.377 0c-0.7751 0-1.3696 0.25692-1.7832 0.77148-0.41035 0.51456-0.61523 1.2684-0.61523 2.2617v1.3105c0.00977 0.95422 0.22051 1.686 0.63086 2.1973s1.0022 0.76758 1.7773 0.76758c0.78487 0 1.382-0.26018 1.7891-0.78125 0.40709-0.52108 0.60938-1.2743 0.60938-2.2578v-1.3086c-0.00977-0.95422-0.21856-1.6853-0.62891-2.1934-0.41035-0.5113-1.0042-0.76758-1.7793-0.76758zm-8.7344 0.087891-2.9453 1.0566v1.1465l1.6855-0.52148v5.4414h1.4121v-7.123zm12.721 0.009766-0.41016 3.6152 1.125 0.2793 0.13672-0.12695c0.20843-0.17586 0.47901-0.26367 0.81445-0.26367 0.36475 0 0.64704 0.10732 0.8457 0.32227 0.19866 0.21494 0.29883 0.5239 0.29883 0.92773 0 0.42012-0.08716 0.74534-0.25977 0.97656-0.17261 0.22797-0.41912 0.3418-0.73828 0.3418-0.28659 0-0.51815-0.081305-0.69727-0.24414-0.177-0.167-0.281-0.398-0.31-0.694h-1.396c0.013027 0.40383 0.12425 0.76418 0.33594 1.0801 0.21494 0.3159 0.50699 0.56047 0.875 0.73633 0.36801 0.17261 0.76738 0.25977 1.1973 0.25977 0.49176 0 0.9178-0.10017 1.2793-0.29883 0.3615-0.20192 0.63793-0.48225 0.83008-0.84375 0.1954-0.36475 0.29297-0.77713 0.29297-1.2363 0-0.75556-0.19188-1.3436-0.57617-1.7637-0.38429-0.42012-0.9144-0.63086-1.5918-0.63086-0.37778 0-0.73487 0.090411-1.0703 0.26953l0.17578-1.5293h2.8281v-1.1777zm4.6504 0 2.3359 4.5332v2.5801h1.4902v-2.58l2.334-4.5332h-1.6016l-1.48 3.204-1.471-3.205zm-24.014 1.046c0.34196 0 0.59237 0.13399 0.75195 0.4043 0.16284 0.26705 0.24414 0.69569 0.24414 1.2852v1.6895c-0.0065135 0.5569-0.087168 0.97188-0.24023 1.2422-0.15307 0.27031-0.40088 0.4043-0.74609 0.4043-0.34847 0-0.60214-0.13984-0.76172-0.41992-0.15632-0.28333-0.23438-0.71522-0.23438-1.2949v-1.73c0.0098-0.544 0.0917-0.943 0.248-1.197 0.1596-0.257 0.4061-0.385 0.7383-0.385zm15.377 0c0.34196 0 0.59433 0.13399 0.75391 0.4043 0.16284 0.26705 0.24414 0.69569 0.24414 1.2852v1.6895c-0.006513 0.5569-0.087168 0.97188-0.24023 1.2422-0.15307 0.27031-0.40283 0.4043-0.74805 0.4043-0.34847 0-0.60214-0.13984-0.76172-0.41992-0.15632-0.28333-0.23438-0.71522-0.23438-1.2949v-1.7285c0.00977-0.54387 0.093677-0.94324 0.25-1.1973 0.15958-0.25728 0.40414-0.38477 0.73633-0.38477zm17.098 0.68359c-0.62855 0-1.1365 0.15675-1.5273 0.47266-0.38755 0.31265-0.58203 0.70486-0.58203 1.1738 0 0.80441 0.62767 1.3378 1.8848 1.6016 0.37778 0.078161 0.65292 0.16857 0.82227 0.26953 0.17261 0.097702 0.25781 0.23169 0.25781 0.4043 0 0.16609-0.068945 0.30204-0.20898 0.40625-0.13678 0.10096-0.34102 0.15039-0.61133 0.15039-0.28985 0-0.52075-0.065693-0.69336-0.19922s-0.26627-0.3254-0.2793-0.57617h-1.3379c0 0.31916 0.097566 0.61576 0.29297 0.89258 0.1954 0.27356 0.46468 0.49081 0.80664 0.65039 0.34521 0.15632 0.73873 0.23438 1.1816 0.23438 0.6546 0 1.188-0.14895 1.6016-0.44531 0.4136-0.29962 0.62109-0.68988 0.62109-1.1719 0-0.67414-0.37335-1.1483-1.1191-1.4219-0.241-0.087931-0.53695-0.16598-0.88867-0.23438-0.35173-0.071648-0.60214-0.1536-0.75195-0.24805-0.14655-0.097701-0.2207-0.22454-0.2207-0.38086 0-0.16609 0.065044-0.30464 0.19531-0.41211s0.31499-0.16016 0.55273-0.16016c0.27682 0 0.48106 0.065694 0.61133 0.19922 0.13027 0.13027 0.19531 0.29808 0.19531 0.5h1.41c0-0.50479-0.20163-0.91652-0.60547-1.2324-0.40058-0.3159-0.93654-0.47266-1.6074-0.47266zm-23.311 1.767v1.1387h2.75v-1.1387z" transform="matrix(.26458 0 0 .26458 0 284.3)" fill="#333"/>
 </g>
</svg>

<svg width="48" height="48" viewBox="0 0 48 48" fill="none" xmlns="http://www.w3.org/2000/svg">
<path d="M12.6369 4.00193C8.40695 3.91423 6.88767 7.82258 8.55265 18.6697C9.52945 25.9425 2.78223 20.3713 4.7695 17.1483C2.97732 19.6951 4.36814 23.5975 7.92376 23.6013C11.8319 23.8737 9.20924 12.1704 11.8671 8.31447C13.8851 4.54152 18.0382 8.74169 18.9588 11.5859C15.919 13.6729 14.1023 17.1214 14.1015 20.8065C14.1012 26.9874 19.1162 31.9984 25.3023 31.9974C31.4886 31.9976 36.5032 26.9869 36.5032 20.8065C36.5032 14.6256 31.4883 9.61466 25.3023 9.61466C23.3864 9.61676 21.5024 10.1097 19.8314 11.0466C18.7254 8.00148 17.1654 4.94032 14.6145 4.27512C13.901 4.1081 13.2402 4.01421 12.636 4.00169L12.6369 4.00193ZM25.3027 10.1308C30.1923 10.134 34.4556 13.453 35.6546 18.1893C32.6665 18.3692 30.8277 18.3897 28.641 17.0467C27.7275 14.0392 25.8543 12.9088 24.9515 16.8533C20.3591 17.7625 20.139 18.3586 15.6783 16.3396C15.6694 16.3356 15.6638 16.332 15.6548 16.3279C15.6441 16.323 15.6348 16.3199 15.6255 16.3162C17.3731 12.5496 21.1479 10.137 25.3031 10.1308H25.3027ZM26.5703 14.8846C27.1178 14.8485 27.6921 15.9038 28.1894 17.3026C30.2697 19.163 33.5355 18.8216 35.7694 18.7087C35.9114 19.399 35.9847 20.1016 35.9882 20.8064C35.9884 26.7027 31.2042 31.4823 25.3023 31.4823C19.4017 31.4817 14.6184 26.7021 14.6184 20.8064C14.6207 19.4265 14.8906 18.0603 15.4133 16.7831L15.4641 16.8065C20.2272 19.2486 22.2091 17.703 25.3898 17.3026C25.734 15.6008 26.1436 14.9127 26.5695 14.8846H26.5703ZM21.5411 19.5349C20.9621 19.5354 20.4928 20.0047 20.4923 20.5837C20.4917 21.1635 20.9613 21.634 21.5411 21.6345C22.1217 21.6351 22.5925 21.1643 22.5919 20.5837C22.5914 20.0039 22.1209 19.5343 21.5411 19.5349ZM29.1953 19.5349C28.6163 19.5354 28.147 20.0047 28.1465 20.5837C28.1459 21.1635 28.6155 21.634 29.1953 21.6345C29.7759 21.6351 30.2467 21.1643 30.2461 20.5837C30.2456 20.0039 29.7751 19.5343 29.1953 19.5349ZM21.9684 25.1819C21.7953 25.197 21.6391 25.3674 21.6617 25.6428C21.8038 27.0271 23.4177 28.0984 25.3609 28.0998C27.3054 28.0996 28.9199 27.028 29.0621 25.6428C28.2429 26.7998 26.9617 27.557 25.3609 27.5901C23.8119 27.5893 22.5184 26.7447 22.3785 25.6428C22.3319 25.3042 22.1415 25.1661 21.9684 25.1819ZM7.70256 35.3457C6.92747 35.3457 6.33298 35.6027 5.91939 36.1172C5.50909 36.6322 5.30419 37.3862 5.30419 38.3792V39.6897C5.31396 40.6439 5.52275 41.3756 5.9331 41.8869C6.34344 42.3982 6.93728 42.6545 7.71237 42.6545C8.49723 42.6545 9.09236 42.3943 9.49945 41.8733C9.90654 41.3522 10.1108 40.599 10.1108 39.6155V38.3065C10.1018 37.3515 9.89058 36.6205 9.48028 36.1125C9.06989 35.6015 8.47799 35.3455 7.7029 35.3455L7.70256 35.3457ZM23.0794 35.3457C22.3043 35.3457 21.7098 35.6027 21.2962 36.1172C20.8858 36.6318 20.681 37.3856 20.681 38.3789V39.6894C20.6907 40.6436 20.9015 41.3753 21.3118 41.8866C21.7222 42.3979 22.314 42.6542 23.0891 42.6542C23.874 42.6542 24.4711 42.394 24.8782 41.873C25.2853 41.3519 25.4875 40.5987 25.4875 39.6152V38.3066C25.4778 37.3524 25.269 36.6213 24.8586 36.1132C24.4483 35.6019 23.8545 35.3457 23.0794 35.3457ZM14.3451 35.4336L11.3998 36.4902V37.6367L13.0853 37.1152V42.5566H14.4974V35.4336H14.3451ZM27.0659 35.4434L26.6558 39.0585L27.7808 39.3378L27.9175 39.2109C28.1259 39.035 28.3965 38.9472 28.7319 38.9472C29.0967 38.9472 29.3789 39.0545 29.5776 39.2695C29.7763 39.4844 29.8764 39.7934 29.8764 40.1972C29.8764 40.6173 29.7893 40.9425 29.6167 41.1738C29.444 41.4017 29.1975 41.5156 28.8784 41.5156C28.5918 41.5156 28.3602 41.4343 28.1811 41.2714C28.0041 41.1044 27.9001 40.8734 27.8711 40.5774H26.4751C26.4882 40.9812 26.5994 41.3416 26.8111 41.6575C27.026 41.9734 27.3181 42.218 27.6861 42.3938C28.0541 42.5664 28.4534 42.6536 28.8834 42.6536C29.3751 42.6536 29.8011 42.5534 30.1626 42.3548C30.5241 42.1529 30.8006 41.8725 30.9927 41.511C31.1881 41.1463 31.2857 40.7339 31.2857 40.2747C31.2857 39.5192 31.0938 38.9312 30.7095 38.5111C30.3252 38.091 29.7951 37.8802 29.1177 37.8802C28.74 37.8802 28.3829 37.9706 28.0474 38.1497L28.2232 36.6205H31.0513V35.4428L27.0659 35.4434ZM31.7163 35.4434L34.0521 39.9765V42.5566H35.5423V39.9766L37.8763 35.4435H36.2747L34.7947 38.6474L33.3237 35.4425L31.7163 35.4434ZM7.70256 36.4894C8.04452 36.4894 8.29493 36.6234 8.4545 36.8937C8.61734 37.1607 8.69864 37.5894 8.69864 38.1789V39.8683C8.69213 40.4252 8.61147 40.8402 8.45841 41.1105C8.30535 41.3808 8.05754 41.5148 7.71233 41.5148C7.36387 41.5148 7.1102 41.375 6.95062 41.0949C6.79431 40.8116 6.71625 40.3797 6.71625 39.8V38.07C6.72605 37.526 6.80794 37.127 6.96424 36.8731C7.12384 36.6161 7.37034 36.4881 7.70253 36.4881L7.70256 36.4894ZM23.0794 36.4894C23.4213 36.4894 23.6737 36.6234 23.8333 36.8937C23.9961 37.1607 24.0774 37.5894 24.0774 38.1789V39.8683C24.0709 40.4252 23.9902 40.8402 23.8372 41.1105C23.6841 41.3808 23.4344 41.5148 23.0891 41.5148C22.7407 41.5148 22.487 41.375 22.3274 41.0949C22.1711 40.8116 22.0931 40.3797 22.0931 39.8V38.0715C22.1028 37.5277 22.1867 37.1283 22.343 36.8743C22.5026 36.617 22.7472 36.4895 23.0794 36.4895V36.4894ZM40.1772 37.173C39.5486 37.173 39.0407 37.3297 38.6499 37.6456C38.2623 37.9583 38.0679 38.3505 38.0679 38.8194C38.0679 39.6238 38.6955 40.1572 39.9526 40.421C40.3304 40.4991 40.6055 40.5895 40.7749 40.6905C40.9475 40.7882 41.0327 40.9222 41.0327 41.0948C41.0327 41.2609 40.9637 41.3968 40.8237 41.501C40.6869 41.602 40.4827 41.6514 40.2124 41.6514C39.9226 41.6514 39.6917 41.5857 39.519 41.4522C39.3464 41.3187 39.2528 41.1268 39.2397 40.8761H37.9019C37.9019 41.1952 37.9994 41.4918 38.1948 41.7686C38.3902 42.0422 38.6595 42.2594 39.0015 42.419C39.3467 42.5753 39.7402 42.6534 40.183 42.6534C40.8376 42.6534 41.371 42.5044 41.7846 42.2081C42.1982 41.9085 42.4057 41.5182 42.4057 41.0362C42.4057 40.3621 42.0324 39.8879 41.2866 39.6143C41.0456 39.5264 40.7497 39.4483 40.398 39.3799C40.0462 39.3083 39.7958 39.2263 39.646 39.1319C39.4995 39.0342 39.4253 38.9073 39.4253 38.751C39.4253 38.5849 39.4904 38.4464 39.6206 38.3389C39.7509 38.2315 39.9356 38.1788 40.1734 38.1788C40.4502 38.1788 40.6544 38.2445 40.7847 38.378C40.9149 38.5083 40.98 38.6761 40.98 38.878H42.39C42.39 38.3732 42.1883 37.9615 41.7845 37.6456C41.3839 37.3297 40.848 37.1729 40.1771 37.1729L40.1772 37.173ZM16.8664 38.9399V40.0786H19.6164V38.9399H16.8664Z" fill="#333333"/>
</svg>
